**kern	**text
*clefG2	*
*k[b-e-a-]	*
*M4/4	*
*MM120	*
=1	=1
2r	.
4r	.
8r	.
8B-	- あ
=2	=2
4e-'	a り
8fL	- た
8e-J	a け
4c	e の
8r	.
8c	- お
*clefF4	*
=3	=3
4B-	o も
4c	o い
4B-	i わ
8r	.
8B-	- こ
=4	=4
4e-'	o れ
*clefG2	*
8fL	- だ
8e-J	a け
4c	e の
8r	.
8c	- こ
=5	=5
4B-	o と
4c	o ば
*clefF4	*
4F	a に
8r	.
8B-	- あ
*clefG2	*
=6	=6
8e-L	a い
8e-	i し
8f	i た
8e-J	a け
4c	e ど
8r	.
8c	- お
=7	=7
4B-	o も
4c	o い
4B-	i わ
8r	.
8B-	- そ
=8	=8
4e-	o れ
8fL	e だ
8e-J	a け
4c	e の
4r	.
=9	=9
4B-	- こ
4e-	o と
4d	o な
[4e-	a の
=10	=10
1e-]	.
=11	=11
1r	.
=12	=12
1r	.
=13	=13
2r	.
4r	.
8r	.
8B-	- あ
=14	=14
8e-L	a い
8e-	i し
8f	i た
8e-J	a の
4c	o わ
8r	.
8c	- だ
*clefF4	*
=15	=15
4B-	a れ
4c'	e だ
4B-	- け
8r	.
8B-	- あ
=16	=16
4e-	a れ
*clefG2	*
8fL	e ほ
8e-J	o ど
4c	o の
8r	.
8c	- じ
=17	=17
4B-	i か
4c	a ん
4B-	n が
4r	.
=18	=18
8e-L	- き
8dJ	i え
4e-	e て
8e-L	e み
8dJ	i え
4e-	e な
=19	=19
4e-	a く
4g'	u な
4f	- た
4r	.
=20	=20
8e-L	- ま
8dJ	a だ
4e-	a ふ
8e-L	u れ
8dJ	e て
4e-	e る
=21	=21
8e-L	u は
8e-J	a ず
4g	u な
4f	a の
4e-	o に
=22	=22
4r	.
4g	- わ
4f	a す
4g	u れ
=23	=23
4e-	e て
8r	.
8e-	- し
4g	i ま
4f	a え
=24	=24
4e-	e ば
4f	a き
4g	i え
4f'	e る
=25	=25
4c	- は
4e-	a ん
4f	n しょ
4g	o お
=26	=26
8e-L	o ほ
8f	o ん
8g	n と
8b-J	o だ
8r	.
8e-L	- て
8cc	e い
8b-J	i い
=27	=27
4b-	i と
8r	.
8g	- お
8fL	o も
8g	o え
8a-	e な
8fJ	a い
=28	=28
4g	i の
8r	.
8g	- あ
8fL	a た
8g	a し
8a-	i わ
8fJ	a ま
=29	=29
4g	a だ
4g	a よ
8fL	o わ
8e-	a い
8d	i む
8e-J	u し
=30	=30
8e-L	i こ
8f	o ん
8g	n と
8b-J	o ら
8b-'L	a く
8e-	- と
8cc	o か
8b-J	a い
=31	=31
4b-	i ぎ
8r	.
8g	- あ
8fL	a た
8g	a し
8a-	i わ
8fJ	a ま
=32	=32
4g	a た
8r	.
8g	- き
8fL	i み
8g	i の
8a-	o な
8fJ	a か
=33	=33
4g	a に
4g	i お
8fL	o ち
8e-	i て
8d	e い
8e-J	i く
=34	=34
4c	u の
4r	.
2r	.
=35	=35
1r	.
=36	=36
1r	.
=37	=37
2r	.
4r	.
8r	.
8B-	- あ
=38	=38
4e-'	a り
8fL	- た
8e-J	a け
4c	e の
8r	.
8c	- お
*clefF4	*
=39	=39
4B-	o も
4c	o い
4B-	i わ
8r	.
8B-	- こ
=40	=40
4e-'	o れ
*clefG2	*
8fL	- だ
8e-J	a け
4c	e の
8r	.
8c	- こ
=41	=41
4B-	o と
4c	o ば
*clefF4	*
4F	a に
8r	.
8B-	- あ
*clefG2	*
=42	=42
8e-L	a い
8e-	i し
8f	i た
8e-J	a け
4c	e ど
8r	.
8c	- お
=43	=43
4B-	o も
4c	o い
4B-	i わ
8r	.
8B-	- そ
=44	=44
4e-	o れ
8fL	e だ
8e-J	a け
4c	e の
4r	.
=45	=45
4B-	- こ
4e-	o と
4d	o な
8e-L	a の
8B-J	- あ
=46	=46
8e-L	a い
8e-	i し
8f	i た
8e-J	a の
4c	o わ
8r	.
8c	- だ
*clefF4	*
=47	=47
4B-	a れ
4c'	e だ
4B-	- け
8r	.
8B-	- あ
=48	=48
4e-	a れ
*clefG2	*
8fL	e ほ
8e-J	o ど
4c	o の
8r	.
8c	- じ
=49	=49
4B-	i か
4c	a ん
4B-	n が
4r	.
=50	=50
8e-L	- き
8dJ	i え
4e-	e て
8e-L	e み
8dJ	i え
4e-	e な
=51	=51
4e-	a く
4g'	u な
4f	- た
4r	.
=52	=52
8e-L	- ま
8dJ	a だ
4e-	a ふ
8e-L	u れ
8dJ	e て
4e-	e る
=53	=53
8e-L	u は
8e-J	a ず
4g	u な
4f	a の
4e-	o に
=54	=54
4r	.
4g	- ま
4f	a す
4g	u い
=55	=55
4e-	i お
8r	.
8e-	- か
4g	a け
4f	e て
=56	=56
4e-	e よ
4f	o ほ
4g	o て
4f'	e る
=57	=57
4c	- な
4e-	a い
4f	i しょ
4g	o お
=58	=58
8e-L	o ほ
8f	o ん
8g	n と
8b-J	o だ
8r	.
8e-L	- て
8cc	e い
8b-J	i い
=59	=59
4b-	i と
8r	.
8g	- も
8fL	o ど
8g	o れ
8a-	e な
8fJ	a い
=60	=60
4g	i の
8r	.
8g	- あ
8fL	a た
8g	a し
8a-	i わ
8fJ	a ま
=61	=61
4g	a だ
4g	a こ
8fL	o わ
8e-	a く
8d	u な
8e-J	a る
=62	=62
8e-L	u も
8f	o ん
8g	n ぶ
8b-J	u ら
8e-L	a ん
8e-	n わ
8cc	a か
8b-J	a ん
=63	=63
4b-	n み
8r	.
8g	- は
8fL	a だ
8g	a し
8a-	i の
8fJ	o ま
=64	=64
4g	a ま
8r	.
8g	- そ
8fL	o の
8g	o あ
8a-	a ま
8fJ	a さ
=65	=65
4g	a に
4g	i お
8fL	o ぼ
8e-	o れ
8d	e た
8fJ	a い
=66	=66
2e-	i の
4r	.
8gL	- そ
8fJ	o お
=67	=67
4f	o だ
8gL	a き
[8b-J	i み
8b-L]	.
8e-	i が
8d	a い
[8e-J	i る
=68	=68
2e-]	.
4r	.
8gL	- と
8fJ	o お
=69	=69
4f	o た
8e-L	a き
[8dJ	i え
8dL]	.
8f	e て
8f	e い
[8e-J	i く
=70	=70
2e-]	.
4r	.
4g	- も
=71	=71
4f	o お
8gL	o わ
[8b-J	a た
8b-]	.
4cc	a し
8cc	i わ
=72	=72
4cc	a き
8r	.
8b-	- み
4b-'	i に
4a-	- つ
=73	=73
4g	u た
4a-	a え
4g	e ら
4f	a れ
=74	=74
4e-	e な
4r	.
2r	.
=75	=75
1r	.
=76	=76
1r	.
=77	=77
1r	.
=78	=78
1r	.
=79	=79
1r	.
=80	=80
1r	.
=81	=81
1r	.
=82	=82
4e-	- き
4d	i み
4e-	i が
4f	a し
=83	=83
4g	i ね
4a-	e ば
4b-	a い
4cc	i い
=84	=84
4b-	i よ
4r	.
4g	- い
4a-	i ま
=85	=85
4g	a す
4f	u ぐ
4e-'	u に
4r	.
=86	=86
1r	.
=87	=87
2r	.
8e-L	ほ
8f	o ん
8g	n と
8b-J	o だ
=88	=88
8r	.
8e-L	- て
8cc	e い
8b-J	i い
4b-	i と
8r	.
8g	- お
=89	=89
8fL	o も
8g	o え
8a-	e な
8fJ	a い
4g	i の
8r	.
8g	- あ
=90	=90
8fL	a た
8g	a し
8a-	i わ
8fJ	a ま
4g	a だ
4g	a よ
=91	=91
8fL	o わ
8e-	a い
8d	i む
8e-J	u し
8e-L	i こ
8f	o ん
8g	n と
8b-J	o ら
=92	=92
8b-'L	a く
8e-	- と
8cc	o か
8b-J	a い
4b-	i ぎ
8r	.
8g	- あ
=93	=93
8fL	a た
8g	a し
8a-	i わ
8fJ	a ま
4g	a た
8r	.
8g	- き
=94	=94
8fL	i み
8g	i の
8a-	o な
8fJ	a か
4g	a に
4b-	i お
=95	=95
8ccL	o ち
8b-	i て
8g	e い
8fJ	i く
8e-L	u ほ
8f	o ん
8g	n と
8b-J	o だ
=96	=96
8r	.
8e-L	- て
8cc	e い
8b-J	i い
4b-	i の
8r	.
8g	- お
=97	=97
8fL	o も
8g	o い
8a-	i な
8fJ	a が
4g	a ら
8r	.
8g	- う
=98	=98
8fL	u そ
8g	o で
8a-	e あ
8fJ	a あ
4g	a て
8gL	e と
8gJ	o ね
=99	=99
8fL	e が
8e-	a う
8d	u の
8e-J	o わ
8e-L	a は
8f	a じ
8g	i き
8b-J	i だ
=100	=100
8e-L	a し
8e-J	i た
4cc'	a け
4b-	- か
8r	.
8g	- あ
=101	=101
8fL	a た
8g	a し
8a-	i が
8fJ	a ま
4g	a だ
8r	.
8g	- よ
=102	=102
8fL	o わ
8g	a む
8a-	u し
8fJ	i も
4g	o ん
4b-	n ぶ
=103	=103
8ccL	u ら
8b-	a ん
8g	n だ
8fJ	a あ
[2g	a た
=104	=104
1g]	.
=105	=105
2a-	a か
[2g	a ら
=106	=106
1g_	.
=107	=107
2g]	.
2r	.
=108	=108
1r	.
=109	=109
1r	.
=110	=110
1r	.
=111	=111
2r	.
4r	.
4g	- き
=112	=112
4g	i み
4f	i が
4g	a は
4f	a い
=113	=113
4g'	i い
4a-	- て
4g'	e る
4g	- く
=114	=114
4g	u り
4f	i か
4g	a え
4b-	e し
=115	=115
4cc	i は
4b-	a て
4e-'	e る
4g	- そ
=116	=116
4g	o れ
4f	e に
4g	i こ
4f	o た
=117	=117
4g	a え
4a-	e よ
4g	o と
4b-	o あ
=118	=118
4cc	a た
4b-	a し
4e-	i わ
4g	a あ
=119	=119
4f	a え
4d	e ぐ
4e-'	u の
4r	.
==	==
*-	*-
